src/assets/filled/Html3.svg

<svg width="24" height="24" viewBox="0 0 24 24"  xmlns="http://www.w3.org/2000/svg">
<path d="M19.8801 2H4.1201C3.5201 2 3.0601 2.51999 3.1301 3.10999L4.9301 19.33C4.9701 19.73 5.2601 20.07 5.6501 20.18L11.7301 21.92C11.9101 21.97 12.1001 21.97 12.2801 21.92L18.3601 20.18C18.7501 20.07 19.0301 19.73 19.0801 19.33L20.8801 3.10999C20.9401 2.51999 20.4801 2 19.8801 2ZM16.2501 16.08C16.2201 16.38 16.0001 16.63 15.7101 16.72L12.2101 17.72C12.1401 17.74 12.0701 17.75 12.0001 17.75C11.9301 17.75 11.8601 17.74 11.7901 17.72L8.2901 16.72C8.0301 16.65 7.8301 16.44 7.7701 16.18L7.2701 14.18C7.1701 13.78 7.4101 13.37 7.8201 13.27C8.2201 13.17 8.6301 13.41 8.7301 13.82L9.1301 15.4L12.0101 16.22L14.8201 15.42L15.2301 11.75H8.0001C7.5901 11.75 7.2501 11.41 7.2501 11C7.2501 10.59 7.5901 10.25 8.0001 10.25H15.3801L15.6601 7.75L7.5001 7.73001C7.0901 7.73001 6.7501 7.39001 6.7501 6.98001C6.7501 6.57001 7.0901 6.23001 7.5001 6.23001L16.5001 6.25C16.7101 6.25 16.9201 6.34 17.0601 6.5C17.2001 6.66 17.2701 6.86999 17.2501 7.07999L16.2501 16.08Z" />
</svg>

<?xml version="1.0" encoding="UTF-8"?>
<svg width="24" height="24" viewBox="0 0 24 24" xmlns="http://www.w3.org/2000/svg">
 <path d="m19.88 2h-15.76c-0.6 0-1.06 0.51999-0.99 1.11l1.8 16.22c0.04 0.4 0.33 0.74 0.72 0.85l6.08 1.74c0.18 0.05 0.37 0.05 0.55 0l6.08-1.74c0.39-0.11 0.67-0.45 0.72-0.85l1.8-16.22c0.06-0.59-0.4-1.11-1-1.11zm-3.63 14.08c-0.03 0.3-0.25 0.55-0.54 0.64l-3.5 1c-0.07 0.02-0.14 0.03-0.21 0.03s-0.14-0.01-0.21-0.03l-3.5-1c-0.26-0.07-0.46-0.28-0.52-0.54l-0.5-2c-0.1-0.4 0.14-0.81 0.55-0.91 0.4-0.1 0.81 0.14 0.91 0.55l0.4 1.58 2.88 0.82 2.81-0.8 0.41-3.67h-7.23c-0.41 0-0.75-0.34-0.75-0.75s0.34-0.75 0.75-0.75h7.38l0.28-2.5-8.16-0.01999c-0.41 0-0.75-0.34-0.75-0.75s0.34-0.75 0.75-0.75l9 0.01999c0.21 0 0.42 0.09 0.56 0.25s0.21 0.36999 0.19 0.57999l-1 9z"/>
</svg>
